X: 136
T:Army and Navy Reel
M:2/4
L:1/16
Z:abc by Bruce Osborne - bosborne@kos.net
K:Bb
B,2B2 B,B (3BAB|dBfB bB(3BAB|GBFB EBDB|cdec AFEC|B,2B2 B,B(3BAB|!
dBfB bB(3BAB|GBFB EBDB|ABce dBBd:|:fbdf BdFB|AFAc ecAc|!
fbdf BdFB|ecAc B2de|fbdf BdFB|AFAc ecAc|!
fdec dBcA|FECD B,2z2:|
